icons/Angular-Light.svg

<svg xmlns="http://www.w3.org/2000/svg" width="256" height="256" fill="none" viewBox="0 0 256 256"><rect width="256" height="256" fill="#F4F2ED" rx="60"/><path fill="#E23237" d="M34.25 61.125L127.325 28L222.85 60.6125L207.412 183.7L127.325 228L48.5375 184.275L34.25 61.125Z"/><path fill="#B52E31" d="M222.85 60.6125L127.325 28V228L207.412 183.7L222.85 60.6125Z"/><path fill="#fff" d="M127.469 51.375L69.4688 180.375L91.1125 179.937L102.8 150.788H154.675L167.375 180.163L188.012 180.6L127.469 51.375ZM127.612 92.7875L147.237 133.769H110.5L127.669 92.7875H127.612Z"/></svg>

<svg xmlns="http://www.w3.org/2000/svg" width="256" height="256" fill="none" viewBox="0 0 256 256"><rect width="256" height="256" fill="#F4F2ED" rx="60"/><path fill="#E23237" d="M34.25 61.13 127.33 28l95.52 32.61-15.44 123.09-80.08 44.3-78.8-43.72z"/><path fill="#B52E31" d="M222.85 60.61 127.33 28v200l80.08-44.3z"/><path fill="#fff" d="m127.47 51.38-58 129 21.64-.44 11.69-29.15h51.88l12.7 29.37 20.63.44zm.14 41.4 19.63 40.99H110.5l17.17-40.98z"/></svg>
